public/icons/shake.svg

<svg width="82" height="83" viewBox="0 0 82 83" fill="none" xmlns="http://www.w3.org/2000/svg">
<path fill-rule="evenodd" clip-rule="evenodd" d="M80.9462 46.1766C79.0295 56.4573 64.8642 56.8514 56.8811 63.2825C49.1317 69.5254 45.4051 81.7191 35.6282 82.6845C24.9066 83.7433 14.4987 76.9393 7.91301 68.118C1.42559 59.4283 -0.250736 47.9207 1.604 37.1102C3.3414 26.9835 9.50485 18.5339 17.4741 12.3898C25.1357 6.48295 34.5473 2.74799 43.9589 4.4558C52.9094 6.07994 58.6256 14.0419 64.7693 20.9718C71.6188 28.6979 82.8653 35.8828 80.9462 46.1766Z" fill="#F5CDE2"/>
<path d="M39.667 46.6666L42.3337 49.3333C42.5963 49.5959 42.9081 49.8043 43.2513 49.9464C43.5944 50.0885 43.9622 50.1617 44.3337 50.1617C44.7051 50.1617 45.0729 50.0885 45.4161 49.9464C45.7592 49.8043 46.071 49.5959 46.3337 49.3333C46.5963 49.0706 46.8046 48.7588 46.9468 48.4157C47.0889 48.0725 47.1621 47.7047 47.1621 47.3333C47.1621 46.9618 47.0889 46.594 46.9468 46.2509C46.8046 45.9077 46.5963 45.5959 46.3337 45.3333M43.667 42.6666L47.0003 45.9999C47.5308 46.5304 48.2502 46.8284 49.0003 46.8284C49.7505 46.8284 50.4699 46.5304 51.0003 45.9999C51.5308 45.4695 51.8288 44.7501 51.8288 43.9999C51.8288 43.2498 51.5308 42.5304 51.0003 41.9999L45.827 36.8266C45.077 36.0775 44.0603 35.6568 43.0003 35.6568C41.9403 35.6568 40.9237 36.0775 40.1737 36.8266L39.0003 37.9999C38.4699 38.5304 37.7505 38.8284 37.0003 38.8284C36.2502 38.8284 35.5308 38.5304 35.0003 37.9999C34.4699 37.4695 34.1719 36.7501 34.1719 35.9999C34.1719 35.2498 34.4699 34.5304 35.0003 33.9999L38.747 30.2533C39.9633 29.0401 41.5495 28.2673 43.2545 28.0572C44.9595 27.8471 46.6859 28.2117 48.1603 29.0933L48.787 29.4666C49.3547 29.8093 50.0297 29.9281 50.6803 29.7999L53.0003 29.3333M53.0003 27.9999L54.3337 42.6666H51.667M29.0003 27.9999L27.667 42.6666L36.3337 51.3333C36.8641 51.8637 37.5835 52.1617 38.3337 52.1617C39.0838 52.1617 39.8032 51.8637 40.3337 51.3333C40.8641 50.8028 41.1621 50.0834 41.1621 49.3333C41.1621 48.5831 40.8641 47.8637 40.3337 47.3333M29.0003 29.3333H39.667" stroke="#235753" stroke-width="2" stroke-linecap="round" stroke-linejoin="round"/>
</svg>

<svg width="82" height="83" fill="none" xmlns="http://www.w3.org/2000/svg"><path fill-rule="evenodd" clip-rule="evenodd" d="M80.946 46.177C79.03 56.457 64.864 56.85 56.881 63.282c-7.75 6.243-11.476 18.437-21.253 19.403-10.721 1.058-21.13-5.746-27.715-14.567-6.487-8.69-8.164-20.197-6.309-31.008 1.737-10.127 7.9-18.576 15.87-24.72 7.662-5.907 17.073-9.642 26.485-7.934 8.95 1.624 14.667 9.586 20.81 16.516 6.85 7.726 18.096 14.91 16.177 25.205z" fill="#F5CDE2"/><path d="M39.667 46.667l2.667 2.666a2.827 2.827 0 1 0 4-4m-2.667-2.666L47 46a2.828 2.828 0 1 0 4-4l-5.173-5.173a4 4 0 0 0-5.653 0L39 38a2.828 2.828 0 1 1-4-4l3.747-3.747a7.72 7.72 0 0 1 9.413-1.16l.627.374a2.666 2.666 0 0 0 1.893.333l2.32-.467M53 28l1.334 14.667h-2.667M29 28l-1.333 14.667 8.667 8.666a2.828 2.828 0 0 0 4-4M29 29.333h10.667" stroke="#235753" stroke-width="2" stroke-linecap="round" stroke-linejoin="round"/></svg>
